icons/switch-fill.svg

<svg xmlns="http://www.w3.org/2000/svg" width="24" height="24" fill="none"><g clip-path="url(#a)"><g><path fill="#121212" d="M13.619 21C13.534 21 13.478 20.943 13.492 20.873V3.127C13.492 3.071 13.534 3.014 13.605 3.014H16.39C17.6126 3.014 18.7852 3.4997 19.6498 4.36424C20.5143 5.22878 21 6.40135 21 7.624V16.39C21 17.6126 20.5143 18.7852 19.6498 19.6498C18.7852 20.5143 17.6126 21 16.39 21H13.62H13.619ZM17.041 11.074C16.037 11.074 15.217 11.894 15.217 12.898C15.217 13.902 16.037 14.722 17.041 14.722C18.045 14.722 18.865 13.902 18.865 12.898C18.865 11.894 18.045 11.074 17.041 11.074ZM5.8 8.4C5.8 7.467 6.563 6.704 7.496 6.704C8.43 6.704 9.193 7.467 9.193 8.4C9.193 9.334 8.43 10.097 7.496 10.097C7.04668 10.0954 6.61621 9.91623 6.29849 9.59851C5.98077 9.28079 5.80158 8.85032 5.8 8.401V8.4ZM11.54 3C11.625 3 11.682 3.057 11.668 3.127V20.86C11.668 20.93 11.611 20.987 11.54 20.987H7.61C7.00452 20.987 6.40497 20.8677 5.8456 20.636C5.28622 20.4043 4.77798 20.0646 4.34988 19.6364C3.92179 19.2082 3.58224 18.6999 3.35063 18.1405C3.11901 17.5811 2.99987 16.9815 3 16.376V7.61C3 6.38735 3.4857 5.21478 4.35024 4.35024C5.21478 3.4857 6.38735 3 7.61 3H11.54ZM10.225 19.544V4.442H7.61C6.761 4.442 5.97 4.782 5.375 5.375C5.07689 5.66544 4.84058 6.01314 4.68024 6.39721C4.51991 6.78129 4.43887 7.19381 4.442 7.61V16.376C4.442 17.225 4.782 18.016 5.375 18.61C5.66535 18.9083 6.01302 19.1448 6.3971 19.3053C6.78118 19.4658 7.19374 19.547 7.61 19.544H10.225Z"/></g></g><defs><clipPath id="a"><rect width="24" height="24" fill="white"/></clipPath></defs></svg>

<svg width="24" height="24" fill="none" xmlns="http://www.w3.org/2000/svg"><g clip-path="url(#a)"><path d="M13.619 21c-.085 0-.141-.057-.127-.127V3.127c0-.056.042-.113.113-.113h2.785A4.61 4.61 0 0 1 21 7.624v8.766A4.61 4.61 0 0 1 16.39 21h-2.771Zm3.422-9.926c-1.004 0-1.824.82-1.824 1.824s.82 1.824 1.824 1.824 1.824-.82 1.824-1.824-.82-1.824-1.824-1.824ZM5.8 8.4a1.7 1.7 0 0 1 1.696-1.696A1.7 1.7 0 0 1 9.193 8.4c0 .934-.763 1.697-1.697 1.697A1.702 1.702 0 0 1 5.8 8.401V8.4ZM11.54 3c.085 0 .142.057.128.127V20.86c0 .07-.057.127-.128.127H7.61A4.61 4.61 0 0 1 3 16.376V7.61A4.61 4.61 0 0 1 7.61 3h3.93Zm-1.315 16.544V4.442H7.61c-.849 0-1.64.34-2.235.933a3.088 3.088 0 0 0-.933 2.235v8.766c0 .849.34 1.64.933 2.234a3.088 3.088 0 0 0 2.235.934h2.615Z" /></g><defs><clipPath id="a"><path fill="#fff" d="M0 0h24v24H0z"/></clipPath></defs></svg>
